X:1
T:Burke and Hare
M:4/4
L:1/8
K:D
 z4 z2 z F| F3 F F3 F| FF E2 D4| C3 C D3 C| B,6 F2| FF F2 F3 F| F3 E D4|\
 C C2 C D3 C| B,6 GG| GG G2 G3 G| F3 E D4| E3 E D2 E2| F6 z G| G3 G G3 G|\
 F3 E D3 D| C3 C D3 C| B,6 z G| G3 G G3 G| F3 E D3 D| E3 E E3 E| D3 E F4|\
 G3 G G3 G| F3 F D3 E| E2- EE F3 E| D3 B, B,4|
